public/payments/common/moonpay.svg

<svg width="99" height="18" viewBox="0 0 99 18" fill="none" xmlns="http://www.w3.org/2000/svg">
<g clip-path="url(#clip0_258_222)">
<path d="M92.3175 14.7899L88.605 6.28122H91.0903L93.6272 12.3824L96.5559 6.28122H99L93.225 18H90.7345L92.3175 14.7899ZM83.2734 13.0254C83.4924 12.9764 83.704 12.8985 83.9025 12.7939C84.0946 12.6915 84.273 12.5653 84.4336 12.4184C84.5942 12.2725 84.7331 12.1045 84.8461 11.9194C84.9627 11.7247 85.0528 11.5154 85.1142 11.2969C85.1832 11.0578 85.2179 10.8101 85.2173 10.5613C85.2184 10.3091 85.1837 10.0579 85.1142 9.81538C85.0512 9.5967 84.9593 9.38737 84.8409 9.19291C84.7273 9.00671 84.5885 8.83706 84.4284 8.68877C84.2713 8.54137 84.0943 8.41669 83.9025 8.31838C83.7027 8.21785 83.4915 8.14185 83.2734 8.09203C83.0434 8.03971 82.8081 8.01382 82.5722 8.01486C82.3379 8.01376 82.1043 8.03966 81.8761 8.09203C81.6613 8.142 81.4535 8.21802 81.2573 8.31838C81.0627 8.41717 80.8823 8.54176 80.7211 8.68877C80.5604 8.83655 80.4215 9.00628 80.3086 9.19291C80.1908 9.38703 80.1005 9.59652 80.0404 9.81538C79.9758 10.0587 79.9445 10.3096 79.9476 10.5613C79.945 10.8096 79.9763 11.0571 80.0404 11.2969C80.1009 11.514 80.1911 11.7218 80.3086 11.9143C80.4205 12.1016 80.5595 12.2715 80.7211 12.4184C80.8826 12.5641 81.0609 12.6901 81.2522 12.7939C81.4471 12.8983 81.6552 12.9762 81.8709 13.0254C82.1006 13.0801 82.336 13.1077 82.5722 13.1077C82.8083 13.1072 83.0436 13.0796 83.2734 13.0254ZM80.7623 14.9288C80.3823 14.8328 80.0165 14.6876 79.6743 14.4967C79.0061 14.1217 78.4548 13.5698 78.0811 12.902C77.8878 12.5573 77.7405 12.189 77.6428 11.8062C77.4396 10.9834 77.4396 10.1237 77.6428 9.30094C77.7401 8.91974 77.8875 8.55303 78.0811 8.21035C78.4566 7.54518 79.0076 6.9954 79.6743 6.62075C80.0165 6.4299 80.3823 6.28462 80.7623 6.18863C81.17 6.08464 81.5893 6.03278 82.0101 6.0343C82.2376 6.03375 82.465 6.04749 82.6908 6.07545C82.8981 6.10112 83.1032 6.14239 83.3043 6.19892C83.4905 6.25253 83.673 6.31782 83.8509 6.3944C84.0169 6.46415 84.1773 6.54671 84.3304 6.64133C84.4763 6.73032 84.6127 6.83372 84.7378 6.94999C84.8533 7.06182 84.9601 7.1822 85.0575 7.31009V6.28122H87.419V14.8362H85.0575V13.8074C84.9063 13.9983 84.7333 14.171 84.5418 14.3218C84.3315 14.4872 84.1011 14.6255 83.8561 14.7334C83.5832 14.851 83.2977 14.9373 83.0053 14.9906C82.6773 15.0533 82.3441 15.0843 82.0101 15.0832C81.5893 15.0847 81.17 15.0328 80.7623 14.9288ZM72.1875 8.44699C72.5262 8.45384 72.8643 8.41578 73.1929 8.33381C73.4493 8.26926 73.6886 8.1499 73.8942 7.984C74.0793 7.83072 74.2214 7.63221 74.3067 7.40783C74.398 7.1521 74.4417 6.88187 74.4356 6.61046C74.4401 6.34041 74.3947 6.07184 74.3015 5.81823C74.2165 5.59515 74.0743 5.39825 73.889 5.24721C73.684 5.08461 73.4467 4.96715 73.1929 4.90254C72.8645 4.8189 72.5264 4.77911 72.1875 4.78423H69.8672V8.44699H72.1875ZM67.4231 2.76765H72.4195C73.2033 2.76765 73.8839 2.86368 74.4614 3.05573C75.0389 3.24779 75.5133 3.51186 75.8845 3.84796C76.2557 4.18477 76.5419 4.60427 76.7198 5.07231C76.9058 5.56545 76.9985 6.08874 76.9931 6.61561C77.0002 7.14261 76.9074 7.66621 76.7198 8.1589C76.5388 8.62235 76.2529 9.03783 75.8845 9.37296C75.5098 9.71592 75.0354 9.98343 74.4614 10.1755C73.8839 10.3675 73.2033 10.4636 72.4195 10.4636H69.8672V14.8362H67.4231V2.76765ZM56.925 6.27608H59.2711V7.30495C59.4159 7.10565 59.5877 6.92733 59.7815 6.77508C59.9859 6.61324 60.2093 6.47678 60.4467 6.36868C60.7088 6.25085 60.984 6.16451 61.2665 6.11146C61.5795 6.0541 61.8971 6.02654 62.2153 6.02915C62.7127 6.02187 63.2073 6.10556 63.6745 6.27608C64.0903 6.42871 64.4671 6.67113 64.7779 6.986C65.0901 7.31296 65.326 7.70469 65.4689 8.13318C65.6336 8.62551 65.7138 9.14207 65.7061 9.66105V14.8311H63.3703V10.2681C63.3764 9.93357 63.3294 9.60021 63.2311 9.28037C63.1504 9.01688 63.0152 8.77326 62.834 8.56531C62.6584 8.37379 62.4391 8.22733 62.1947 8.13833C61.9171 8.03808 61.6235 7.98926 61.3284 7.99428C61.0333 7.98995 60.7399 8.03874 60.4622 8.13833C60.2158 8.22641 59.9946 8.37295 59.8176 8.56531C59.6359 8.77477 59.5006 9.0202 59.4206 9.28551C59.3233 9.60206 59.2763 9.93187 59.2814 10.2629V14.8311H56.925V6.27608ZM51.15 13.0049C51.3735 12.9496 51.5898 12.8684 51.7945 12.7631C51.9898 12.6637 52.1689 12.5354 52.3256 12.3824C52.4816 12.2311 52.6169 12.0599 52.7278 11.8731C52.8403 11.6806 52.9237 11.4726 52.9753 11.2558C53.031 11.0233 53.0586 10.7849 53.0578 10.5459C53.0596 10.3051 53.0319 10.0649 52.9753 9.83081C52.8701 9.40293 52.6447 9.01387 52.3256 8.70935C52.1669 8.55728 51.9883 8.42748 51.7945 8.32352C51.5913 8.21482 51.3746 8.13351 51.15 8.08174C50.9065 8.02591 50.6573 7.99829 50.4075 7.99943C50.1593 7.99831 49.9119 8.02594 49.6701 8.08174C49.4452 8.13267 49.2284 8.21402 49.0256 8.32352C48.8339 8.42824 48.657 8.55799 48.4997 8.70935C48.344 8.85843 48.2119 9.03013 48.1078 9.21863C48.0014 9.41224 47.9183 9.61773 47.8603 9.83081C47.799 10.0642 47.7695 10.3047 47.7726 10.5459C47.7707 10.7853 47.8002 11.024 47.8603 11.2558C47.9167 11.471 47.9998 11.6784 48.1078 11.8731C48.2128 12.0626 48.3448 12.2358 48.4997 12.3875C48.6589 12.537 48.8396 12.6618 49.0359 12.7579C49.2402 12.8641 49.4566 12.9452 49.6804 12.9997C49.922 13.0569 50.1696 13.0845 50.4178 13.082C50.6677 13.0846 50.917 13.057 51.1603 12.9997M49.0308 14.9237C48.6077 14.8261 48.1975 14.6793 47.8087 14.4864C47.4438 14.3032 47.1055 14.0713 46.8033 13.7971C46.5091 13.5324 46.254 13.2276 46.0453 12.8917C45.8348 12.5488 45.6734 12.1783 45.5658 11.7908C45.3407 10.9708 45.3407 10.1055 45.5658 9.28551C45.673 8.89952 45.8344 8.53061 46.0453 8.18977C46.2555 7.85497 46.5105 7.55036 46.8033 7.28437C47.1047 7.00766 47.443 6.77394 47.8087 6.58988C48.1976 6.39709 48.6077 6.25034 49.0308 6.15262C49.9471 5.94424 50.8988 5.94424 51.8151 6.15262C52.2368 6.24924 52.6454 6.39605 53.032 6.58988C53.3961 6.77663 53.7341 7.0101 54.0375 7.28437C54.3359 7.54915 54.5962 7.85384 54.8109 8.18977C55.0245 8.52982 55.1878 8.89888 55.2956 9.28551C55.5207 10.1055 55.5207 10.9708 55.2956 11.7908C55.1857 12.1792 55.0208 12.5499 54.8058 12.8917C54.5941 13.2284 54.3354 13.5332 54.0375 13.7971C53.7332 14.0688 53.3953 14.3005 53.032 14.4864C52.647 14.6799 52.2402 14.8267 51.8203 14.9237C50.9038 15.1314 49.9524 15.1314 49.0359 14.9237M39.8784 12.9997C40.102 12.9445 40.3183 12.8633 40.5229 12.7579C40.7183 12.6586 40.8973 12.5302 41.054 12.3773C41.2101 12.226 41.3453 12.0547 41.4562 11.868C41.5687 11.6755 41.6521 11.4675 41.7037 11.2506C41.7594 11.0181 41.7871 10.7798 41.7862 10.5407C41.788 10.2999 41.7603 10.0598 41.7037 9.82567C41.5985 9.39778 41.3731 9.00873 41.054 8.7042C40.8954 8.55214 40.7167 8.42234 40.5229 8.31838C40.3198 8.20967 40.103 8.12837 39.8784 8.07659C39.6349 8.02076 39.3858 7.99314 39.1359 7.99428C38.8878 7.99317 38.6403 8.02079 38.3986 8.07659C38.1737 8.12753 37.9568 8.20887 37.754 8.31838C37.5624 8.42315 37.3855 8.5529 37.2281 8.7042C37.0725 8.85329 36.9404 9.02499 36.8362 9.21349C36.7299 9.40714 36.6468 9.61261 36.5887 9.82567C36.5274 10.059 36.498 10.2995 36.5011 10.5407C36.4991 10.7802 36.5286 11.0188 36.5887 11.2506C36.6452 11.4659 36.7283 11.6733 36.8362 11.868C36.9413 12.0574 37.0733 12.2307 37.2281 12.3824C37.3838 12.5328 37.5611 12.6594 37.754 12.7579C37.9584 12.8641 38.1748 12.9452 38.3986 12.9997C38.6401 13.0569 38.8877 13.0845 39.1359 13.082C39.3858 13.0846 39.6352 13.057 39.8784 12.9997ZM37.7437 14.9288C37.3207 14.8312 36.9105 14.6845 36.5217 14.4916C36.1568 14.3083 35.8185 14.0764 35.5162 13.8022C35.2222 13.5375 34.967 13.2327 34.7583 12.8968C34.5477 12.554 34.3863 12.1834 34.2787 11.7959C34.0537 10.9759 34.0537 10.1107 34.2787 9.29066C34.3859 8.90466 34.5474 8.53576 34.7583 8.19491C34.9684 7.86012 35.2235 7.5555 35.5162 7.28951C35.8176 7.0128 36.156 6.77908 36.5217 6.59503C36.9106 6.40224 37.3207 6.25548 37.7437 6.15776C38.6601 5.94938 39.6117 5.94938 40.5281 6.15776C40.9481 6.25473 41.3549 6.40153 41.7398 6.59503C42.1057 6.78139 42.4455 7.01488 42.7504 7.28951C43.0489 7.55429 43.3091 7.85898 43.5239 8.19491C43.7357 8.53526 43.8972 8.90431 44.0034 9.29066C44.2285 10.1107 44.2285 10.9759 44.0034 11.7959C43.8952 12.1841 43.732 12.5548 43.5187 12.8968C43.307 13.2335 43.0484 13.5384 42.7504 13.8022C42.4446 14.0744 42.105 14.3061 41.7398 14.4916C41.3565 14.6846 40.9514 14.8314 40.5333 14.9288C39.6168 15.1365 38.6653 15.1365 37.7489 14.9288M19.2225 2.76765H21.6975L25.9153 9.2032L30.164 2.76765H32.639V14.8362H30.1898V6.55902L26.6836 11.8988H25.1883L21.682 6.55902V14.8414H19.2328L19.2225 2.76765ZM13.5918 4.92827C14.0801 4.92827 14.5574 4.78388 14.9635 4.51334C15.3695 4.2428 15.6861 3.85826 15.8732 3.4083C16.0603 2.95834 16.1095 2.46315 16.0146 1.98529C15.9197 1.50744 15.685 1.06837 15.3401 0.723547C14.9952 0.378728 14.5556 0.143637 14.0768 0.0479776C13.5981 -0.0476816 13.1016 0.000383037 12.6502 0.186099C12.1989 0.371815 11.8128 0.686848 11.5407 1.0914C11.2687 1.49594 11.123 1.97185 11.122 2.45899C11.1213 2.78302 11.1847 3.104 11.3085 3.40355C11.4323 3.70311 11.6142 3.97536 11.8436 4.20472C12.073 4.43408 12.3455 4.61605 12.6455 4.7402C12.9455 4.86436 13.2671 4.92827 13.5918 4.92827ZM6.01731 16.0246C4.82764 16.0236 3.66496 15.6707 2.6762 15.0107C1.68744 14.3506 0.916985 13.413 0.462186 12.3162C0.00738688 11.2194 -0.111342 10.0128 0.121003 8.84868C0.353348 7.68461 0.926339 6.61537 1.76757 5.77609C2.6088 4.9368 3.68051 4.36514 4.84728 4.13333C6.01405 3.90152 7.22351 4.01998 8.32283 4.47372C9.42214 4.92747 10.362 5.69615 11.0236 6.68262C11.6851 7.66909 12.0388 8.82908 12.0398 10.016C12.0405 10.8053 11.8852 11.5869 11.5828 12.3162C11.2803 13.0455 10.8368 13.7081 10.2774 14.2662C9.718 14.8243 9.05382 15.2669 8.32283 15.5686C7.59184 15.8703 6.80839 16.0253 6.01731 16.0246Z" fill="white"/>
</g>
<defs>
<clipPath id="clip0_258_222">
<rect width="99" height="18" fill="white"/>
</clipPath>
</defs>
</svg>

<svg xmlns="http://www.w3.org/2000/svg" width="99" height="18" fill="none"><g clip-path="url(#a)"><path fill="#fff" d="m92.32 14.79-3.71-8.5h2.48l2.54 6.1 2.93-6.1H99L93.22 18h-2.49l1.59-3.21Zm-9.05-1.76a2.54 2.54 0 0 0 1.58-1.11 2.56 2.56 0 0 0 .37-1.36 2.67 2.67 0 0 0-.38-1.37 2.37 2.37 0 0 0-1.57-1.1 3.1 3.1 0 0 0-2.01.23 2.42 2.42 0 0 0-.95.87 2.45 2.45 0 0 0-.36 1.37 2.44 2.44 0 0 0 1.92 2.46 3.03 3.03 0 0 0 1.4 0Zm-2.5 1.9a4.16 4.16 0 0 1-3.12-3.12c-.21-.83-.21-1.69 0-2.5a4.18 4.18 0 0 1 3.12-3.11 4.98 4.98 0 0 1 3.56.44 2.54 2.54 0 0 1 .73.67V6.28h2.36v8.56h-2.36V13.8a3.12 3.12 0 0 1-1.2.92 5.2 5.2 0 0 1-3.1.2Zm-8.58-6.48c.34 0 .67-.03 1-.12.26-.06.5-.18.7-.35.19-.15.33-.35.42-.57.09-.26.13-.53.13-.8s-.05-.54-.14-.8a1.36 1.36 0 0 0-.41-.56c-.2-.17-.44-.28-.7-.35a3.84 3.84 0 0 0-1-.12h-2.32v3.67h2.32Zm-4.77-5.68h5c.78 0 1.46.1 2.04.29.58.19 1.05.45 1.42.79.38.33.66.75.84 1.22.19.5.28 1.02.27 1.55.01.52-.08 1.05-.27 1.54-.18.46-.47.88-.84 1.21-.37.35-.84.61-1.42.8-.58.2-1.26.3-2.04.3h-2.55v4.37h-2.45V2.77Zm-10.5 3.5h2.35V7.3a3.22 3.22 0 0 1 2-1.2 5.03 5.03 0 0 1 2.4.18 3 3 0 0 1 1.1.7c.32.33.56.72.7 1.15.16.5.24 1.01.24 1.53v5.17h-2.34v-4.56c0-.34-.04-.67-.14-.99-.08-.26-.21-.5-.4-.71-.17-.2-.4-.34-.64-.43-.27-.1-.57-.15-.86-.15-.3 0-.59.05-.87.15-.24.09-.47.23-.64.43-.18.2-.32.45-.4.72-.1.31-.14.64-.14.97v4.57h-2.36V6.28ZM51.16 13c.22-.05.44-.13.64-.24.2-.1.38-.22.54-.38a2.26 2.26 0 0 0 .65-1.13 3 3 0 0 0 0-1.42 2.31 2.31 0 0 0-1.19-1.5 2.6 2.6 0 0 0-.64-.25 3.26 3.26 0 0 0-2.12.24 2.46 2.46 0 0 0-.92.9 2.8 2.8 0 0 0-.25 2.04c.06.21.14.42.25.61.1.2.23.37.39.52a2.87 2.87 0 0 0 1.92.7c.25 0 .5-.03.74-.09m-2.13 1.92c-.42-.1-.83-.24-1.22-.43a4.5 4.5 0 0 1-1.76-1.6 4.73 4.73 0 0 1 0-4.7 4.34 4.34 0 0 1 1.76-1.6 6.28 6.28 0 0 1 5.22 0 4.7 4.7 0 0 1 1.78 1.6c.21.34.38.7.49 1.1.22.82.22 1.68 0 2.5a4.23 4.23 0 0 1-2.27 2.7 6.3 6.3 0 0 1-4 .44M39.89 13c.22-.06.44-.14.64-.24a2.46 2.46 0 0 0 .93-.89c.12-.2.2-.4.25-.62a3 3 0 0 0 0-1.42 2.31 2.31 0 0 0-1.18-1.51 2.6 2.6 0 0 0-.64-.24 3.26 3.26 0 0 0-2.13.24 2.47 2.47 0 0 0-.91.9 2.8 2.8 0 0 0-.25 2.03c.06.22.14.42.25.62a2.25 2.25 0 0 0 .91.89 2.87 2.87 0 0 0 1.39.32c.25 0 .5-.02.74-.08Zm-2.14 1.93c-.42-.1-.83-.25-1.22-.44a4.51 4.51 0 0 1-1.76-1.6 4.73 4.73 0 0 1 0-4.7 4.34 4.34 0 0 1 1.76-1.6 6.28 6.28 0 0 1 4-.44c.43.1.83.25 1.22.45a4.7 4.7 0 0 1 1.78 1.6 4.73 4.73 0 0 1 0 4.7 4.77 4.77 0 0 1-2.99 2.03c-.91.2-1.86.2-2.78 0M19.22 2.77h2.48l4.22 6.43 4.24-6.43h2.48v12.07h-2.45V6.56l-3.5 5.34h-1.5l-3.5-5.34v8.28h-2.46V2.77ZM13.6 4.93a2.47 2.47 0 0 0 2.42-2.94 2.46 2.46 0 0 0-3.36-1.8 2.47 2.47 0 0 0 .94 4.74Zm-7.57 11.1a6.03 6.03 0 0 1-5.9-7.18 6 6 0 0 1 8.2-4.38 6.01 6.01 0 0 1-2.3 11.55Z"/></g><defs><clipPath id="a"><path fill="#fff" d="M0 0h99v18H0z"/></clipPath></defs></svg>
